!!!OTL: 351. Napoleon 1812.
!!!ODT: 1890
!!!ARE: Europa, Mitteleuropa, Deutschland, Wetterau
!!!SCT: E0351
!!!TXL: @@DE
!!!YEM: Copyright 1995, estate of Helmut Schaffrath.
**kern	**text
*ICvox	*
!! Mixed meters:  3/4; 2/4
*M3/4	*
*k[f#]	*
*G:	*
!LO:TX:a:t=Aus der Wetterau. 1890.	!
{8d	Na-
8d	-po-
8f#	-le-
=1	=1
4g	-on,
4b/	du
8b/	gro-
8a	-ßer
=2	=2
8a	Sie-
8g	-ger,
8r}	.
{8g	du
8g	reiſt
8b/	nach
=3	=3
4dd	Ruß-
4dd	-land,
8dd	kommſt
8cc	gleich
=4	=4
8cc	wie-
8b	-der.
4r	.
8r}	.
{8g	Ei,
=5	=5
*M2/4	*
8g	wärſt
8ee	du
8ee	nicht
8ee	nach
=6	=6
8ee	Rußland
8dd	.
4dd}	g'reiſt;
=7	=7
{8dd	könnſt
8cc	mit
8ee	Luſt
8cc	noch
=8	=8
8cc	Kaiſer
8b	.
4dd}	ſein!
=9	=9
{16a	Val-
16a	-le-
16a	-ral-
16a	-le-
4cc	-ri,
=10	=10
16b	val-
16b	-le-
16b	-ral-
16b	-le-
4dd}	-ra,
=11	=11
{8b	jetʒt
8cc	nun
8.dd	ſein
16ee	die
=12	=12
8dd	Heſ-
8cc	-ſen
8b/	da!
8a	Vi-
=13	=13
4g	-vat!
8r}	.
{8g	Ei,
=14	=14
8g	wärſt
8ee	du
8ee	nicht
8ee	nach
=15	=15
8ee	Rußland
8dd	.
4dd}	g'reiſt;
=16	=16
{8dd	könnſt
8cc	mit
8ee	Luſt
8cc	noch
=17	=17
8cc	Kaiſer
8b	.
4dd}	ſein!
=18	=18
{16a	Val-
16a	-le-
16a	-ral-
16a	-le-
4cc	-ri,
=19	=19
16b	val-
16b	-le-
16b	-ral-
16b	-le-
4dd}	-ra,
=20	=20
{8b	jetʒt
8cc	nun
8.dd	ſein
16ee	die
=21	=21
8dd	Heſ-
8cc	-ſen
8b/	da!
8a	Vi-
=22	=22
4g	-vat!
8r}	.
==	==
!!!AGN: historisches Lied, Napoleons russischer Feldzug (1812)
!!!ONB: ESAC (Essen Associative Code) Database: ERK1
!!!AMT: irregular
!!!AIN: vox
!!!EED: Helmut Schaffrath
!!!EEV: 1.0
!!!GTL: Historische Lieder
!!!URL-scan: https://rosdok.uni-rostock.de/mcrviewer/recordIdentifier/rosdok_ppn745177662/iview2/phys_0164.iview2?x=-511.385789653207&y=226.502681795042&scale=0.48104763951911705&rotation=0&layout=singlePageLayout
!!!ENC: Anna Maria Matuszewska
!!!EEV: 2024/09/12
*-	*-
